!!!OTL: 534. Mein Herz ist im Hochland. / Andere Melodie.
!!!ODT: 1852
!!!ARE: Europa, Mitteleuropa, Deutschland, Sueddeutschland
!!!SCT: B0534A
!!!TXL: @@DE
!!!YEM: Copyright 1995, estate of Helmut Schaffrath.
**kern	**text
*ICvox	*
*Ivox	*
*clefG2	*
*M3/4	*
*k[]	*
*C:	*
!LO:TX:a:t=Munter.	!
{8gL	Mein
8eeJ	.
=1	=1
4dd	Herʒ
4.cc	iſt
8e	im
=2	=2
4d	Hoch-
4.b}	-land,
{8a	mein
=3	=3
4g	Herʒ
4f	iſt
8dL	nicht
8aJ	.
=4	=4
2g}	hier!
{8gL	Mein
8eeJ	.
=5	=5
4dd	Herʒ
4.cc	iſt
8e	im
=6	=6
4d	Hoch-
4.b/}	-land,
{8a	im
=7	=7
4g	wald'gen
4f	.
4B	Re-
=8	=8
4c	-vier!
4r}	.
{4c	Da
=9	=9
4d	jag'
8f#L	ich
8aJ	.
8ccL	das
8bJ	.
=10	=10
4a	Rothwild,
4g}	.
{4d	da
=11	=11
4d	folg'
8f#L	ich
8aJ	.
8eeL	dem
8ddJ	.
=12	=12
(4.b	Reh;
8a)}	.
{8gL	mein
8eeJ	.
=13	=13
4dd	Herʒ
4.cc	iſt
8e	im
=14	=14
4d	Hoch-
4.b}	-land,
{8a	wo
=15	=15
4g	im-
4.ff	-mer
8b	ich
=16	=16
2cc}	geh'.
==	==
!!!AGN: Wander -, Heimat - Lied
!!!GTL: Wanderlieder
!!!ONB: ESAC (Essen Associative Code) Database: BOEHME
!!!AMT: simple triple
!!!AIN: vox
!!!EED: Helmut Schaffrath
!!!EEV: 1.0
!!Süddeutsche Volkswise (1852).
!!!URL-scan: https://archive.org/details/BoehmeVtLieder1895/page/n425/mode/2up
!!!ENC: Anna Maria Matuszewska
!!!EEV: 2024/11/07
*-	*-
